flaticon/emoticons/creepy.svg

<svg xmlns="http://www.w3.org/2000/svg" width="32" height="32" viewBox="0 0 24 24">
    <path d="M 8.726562 8.183594 C 8.726562 9.085938 7.996094 9.816406 7.089844 9.816406 C 6.1875 9.816406 5.453125 9.085938 5.453125 8.183594 C 5.453125 7.277344 6.1875 6.546875 7.089844 6.546875 C 7.996094 6.546875 8.726562 7.277344 8.726562 8.183594 Z M 8.726562 8.183594"/>
    <path d="M10.910156 8.183594C10.910156 6.078125 9.195312 4.363281 7.089844 4.363281 4.984375 4.363281 3.273438 6.078125 3.273438 8.183594 3.273438 10.285156 4.984375 12 7.089844 12 9.195312 12 10.910156 10.285156 10.910156 8.183594zM4.363281 8.183594C4.363281 6.679688 5.585938 5.453125 7.089844 5.453125 8.59375 5.453125 9.816406 6.679688 9.816406 8.183594 9.816406 9.6875 8.59375 10.910156 7.089844 10.910156 5.585938 10.910156 4.363281 9.6875 4.363281 8.183594zM18.546875 8.183594C18.546875 9.085938 17.8125 9.816406 16.910156 9.816406 16.003906 9.816406 15.273438 9.085938 15.273438 8.183594 15.273438 7.277344 16.003906 6.546875 16.910156 6.546875 17.8125 6.546875 18.546875 7.277344 18.546875 8.183594zM18.546875 8.183594"/>
    <path d="M 16.910156 4.363281 C 14.804688 4.363281 13.089844 6.078125 13.089844 8.183594 C 13.089844 10.285156 14.804688 12 16.910156 12 C 19.015625 12 20.726562 10.285156 20.726562 8.183594 C 20.726562 6.078125 19.015625 4.363281 16.910156 4.363281 Z M 16.910156 10.910156 C 15.40625 10.910156 14.183594 9.6875 14.183594 8.183594 C 14.183594 6.679688 15.40625 5.453125 16.910156 5.453125 C 18.414062 5.453125 19.636719 6.679688 19.636719 8.183594 C 19.636719 9.6875 18.414062 10.910156 16.910156 10.910156 Z M 16.910156 10.910156"/>
    <path d="M 12 0 C 5.382812 0 0 5.382812 0 12 C 0 18.617188 5.382812 24 12 24 C 18.617188 24 24 18.617188 24 12 C 24 5.382812 18.617188 0 12 0 Z M 12 22.910156 C 5.984375 22.910156 1.089844 18.015625 1.089844 12 C 1.089844 5.984375 5.984375 1.089844 12 1.089844 C 18.015625 1.089844 22.910156 5.984375 22.910156 12 C 22.910156 18.015625 18.015625 22.910156 12 22.910156 Z M 12 22.910156"/>
    <path d="M 17.726562 15.816406 L 4.910156 15.816406 L 4.910156 19.636719 L 17.726562 19.636719 C 18.78125 19.636719 19.636719 18.78125 19.636719 17.726562 C 19.636719 16.675781 18.78125 15.816406 17.726562 15.816406 Z M 11.453125 16.910156 L 13.089844 16.910156 L 13.089844 18.546875 L 11.453125 18.546875 Z M 10.363281 18.546875 L 8.726562 18.546875 L 8.726562 16.910156 L 10.363281 16.910156 Z M 6 16.910156 L 7.636719 16.910156 L 7.636719 18.546875 L 6 18.546875 Z M 15.816406 18.546875 L 14.183594 18.546875 L 14.183594 16.910156 L 15.816406 16.910156 Z M 17.726562 18.546875 L 16.910156 18.546875 L 16.910156 16.910156 L 17.726562 16.910156 C 18.179688 16.910156 18.546875 17.277344 18.546875 17.726562 C 18.546875 18.179688 18.179688 18.546875 17.726562 18.546875 Z M 17.726562 18.546875"/>
</svg>

<svg xmlns="http://www.w3.org/2000/svg" width="32" height="32" viewBox="0 0 24 24">
    <path d="M8.727 8.184c0 .902-.73 1.632-1.637 1.632a1.635 1.635 0 1 1 0-3.27c.906 0 1.637.731 1.637 1.638zm0 0"/>
    <path d="M10.91 8.184a3.826 3.826 0 0 0-3.82-3.82 3.823 3.823 0 0 0-3.817 3.82A3.822 3.822 0 0 0 7.09 12a3.825 3.825 0 0 0 3.82-3.816zm-6.547 0a2.732 2.732 0 0 1 2.727-2.73 2.729 2.729 0 0 1 0 5.457 2.729 2.729 0 0 1-2.727-2.727zm0 0M18.547 8.184c0 .902-.735 1.632-1.637 1.632a1.634 1.634 0 1 1 0-3.27c.902 0 1.637.731 1.637 1.638zm0 0"/>
    <path d="M16.91 4.363a3.826 3.826 0 0 0-3.82 3.82A3.825 3.825 0 0 0 16.91 12a3.822 3.822 0 0 0 3.817-3.816c0-2.106-1.711-3.82-3.817-3.82zm0 6.547a2.729 2.729 0 0 1 0-5.457 2.729 2.729 0 0 1 0 5.457zm0 0"/>
    <path d="M12 0C5.383 0 0 5.383 0 12s5.383 12 12 12 12-5.383 12-12S18.617 0 12 0zm0 22.91C5.984 22.91 1.09 18.016 1.09 12S5.984 1.09 12 1.09 22.91 5.984 22.91 12 18.016 22.91 12 22.91zm0 0"/>
    <path d="M17.727 15.816H4.91v3.82h12.817a1.91 1.91 0 0 0 0-3.82zm-6.274 1.094h1.637v1.637h-1.637zm-1.09 1.637H8.727V16.91h1.636zM6 16.91h1.637v1.637H6zm9.816 1.637h-1.632V16.91h1.632zm1.91 0h-.816V16.91h.817a.82.82 0 1 1 0 1.637zm0 0"/>
</svg>
